X:3951
T:Major Mackies Jig
T:Family Jig
O:england
M:6/8
L:1/8
R:Jig
K:D
d | ABc dcd | B2 e e2 d | c2 a ag^a | f2d d2d |  ABc dcd | B2 e e2 d | c
2 a gfe | d3-d2 :|
|: e | f2f def | g3g2f| e2e cde | f3f2e | ddd def | g2B e2 d | c2a gfe |
d3-d2 :|


